X:44
T:Bounapartes Pettit Dancea. JGi.044
M:6/8
L:1/8
Q:3/8=90
S:Joshua Gibbons MS,1823,Tealby,Lincs.
R:Cotillion
O:Tealby,Lincolnshire
Z:VMP/R.Greig, 2009
K:G
d|g2dg2(d/2c/2)|B>AB GAB|cBA FGA|G2GG2d|
g2dg2(d/2c/2)|B>AB GAB|cBA FGA|G2GG2:|
|:d|(ef).g (gf).e|dfa a2f|gfe ^cde|d2dd2d|
efg gfe|dfa a2f|gfe ^cde|d3d3:|
|:D|G2AB2c|d3B2d|cecA2c|BdBG2D|
G2AB2c|d3B2d|cec BdF|G3G3:|

